X:433
T:Rowan Tree, The
R:Slow Air
Z: Scotland
M:4/4
L:1/8
K:A
A>B |\
"A" c3c c2B2 |       ce3 e2a2 | "D" f3e      f2a2 | f3e "E7" e2 A>B |
"A" c3c c2B2 | "F#m" ce3 f3e  | "D" ec3 "E7" B3c  |     "A"  A6    :|
|: e2 |\
"A" e2-e>a      a2-a>g | "D"   g2f2            f2a2  |\
"A" e3f   "F#m" fedc   | "Bm"  c2-cd/>c/ "E7"  B2A>B |
"A" c3c         c2B2   | "F#m" ce3       "C#m" f3e   | "D" ec3 "E7" B3c | "A" A6 :|
